X:36
T:Esther's Arrival
R:Reel
S:
H:
N:
D:Maiden Voyage
M:4/4
L:1/8
K:D
DFAd (3Bcd Ad|cdAd BEE2|DFAd (3Bcd fg|afeg fdAF:||\
f3a gfed|ABcd efge|f3a gfed|cdBc ABce|\
f3a gfed|ABcd efge|f3a gfed|cABc dBAF||
